X:1
T:Title
%%score ( 1 2 ) { 3 | 4 }
L:1/8
Q:1/4=150
M:6/4
K:Bb
V:1 treble nm="Grand Piano, Soprano"
V:2 treble 
V:3 bass nm="Choir Pad, Bass"
V:4 bass 
V:1
 [DF]2 [DG]2 [DA]2 [DB]2 [EA]2 [FB]2 | [Fc]2 [Fd]2 [Ec]2 [DB]6 | %2
w: By~Charles~Hutchinson~Gabriel * * * * *||
 [GB]2 [^FA]2 [GB]2 [Gc]2 [GB]2 [EG]2 | [DF]2 [FB]2 [Fd]2 c4- [Ec]2 | %4
w: ||
 [DF]2 [DG]2 [DA]2 [DB]2 [EA]2 [FB]2 | [Fc]2 [FB]2 [Fc]2 [Fd]6 | %6
w: ||
 [Gc]2 [Gd]2 [Ge]2 [Fd]2 [Fd]2 [FB]2 | [EA]2 [DB]2 [Ec]2 [DB]6 | [Ec]6- [Ec]2 [EF]2 [EG]2 | z6 B6 | %10
w: ||||
 [=Ed]6- [Ed]2 [EG]2 [Ed]2 | [Fc]4 [Fd]2 [Fe]6 | .d12 | [Ff]6 [Fd]4 [FB]2 | .c12 | [DB]12 |] %16
w: ||||||
V:2
 x12 | x12 | x12 | z6 .F6 | x12 | x12 | x12 | x12 | x12 | [DF]6 D4 F2 | x12 | x12 | %12
 F2 F2 F2 F2 [=E_d]2 [F=d]2 | x12 | E2 E2 E2 E2 [Fd]2 [Ec]2 | x12 |] %16
V:3
 B,2 B,2 B,2 F,2 F,2 B,2 | A,2 A,2 A,2 B,6 | B,2 B,2 B,2 E2 E2 B,2 | B,2 B,2 B,2 A,6 | %4
 B,2 B,2 B,2 F,2 F,2 B,2 | A,2 G,2 A,2 B,6 | B,2 B,2 B,2 B,2 B,2 D2 | C2 B,2 A,2 B,6 | %8
 A,2 A,2 A,2 A,4 A,2 | B,2 A,2 G,2 F,4 B,2 | B,2 G,2 D2 C2 B,2 G,2 | A,4 B,2 C6 | %12
 B,2 A,2 G,2 F,2 G,2 B,2 | D6 B,4 B,2 | A,2 A,2 A,2 A,2 B,2 F,2 | F,12 |] %16
V:4
 B,,2 B,,2 B,,2 B,,2 C,2 D,2 | F,2 F,2 F,2 B,,6 | E,2 E,2 E,2 E,2 E,2 E,2 | B,,2 D,2 B,,2 F,6 | %4
 B,,2 B,,2 B,,2 B,,2 C,2 D,2 | F,2 F,2 F,2 B,,6 | E,2 E,2 E,2 F,2 F,2 F,2 | F,2 F,2 F,2 B,,6 | %8
 F,2 F,2 F,2 F,4 F,2 | B,,2 B,,2 B,,2 B,,4 D,2 | C,2 C,2 C,2 C,2 C,2 C,2 | F,4 F,2 F,6 | %12
 B,,2 B,,2 B,,2 B,,2 B,,2 B,,2 | B,6 B,,4 D,2 | F,2 F,2 F,2 F,2 .F,4 | B,,12 |] %16

